X: 36253
T: Seagulls' Blessing, The
R: jig
M: 6/8
K: Gmajor
|:g2d ~B2A|GAB AGE|DE/F/G AGA|Bd^c def|
g2d ~B2A|GAB AGE|DE/F/G AGA|1 BGF GBd:|2 BGF GB/c/d||
|:gdB ecA|GBd def|gdB BAG|ABA AB/c/d|
gdB fec|dBG GAB|dgd cBA|1 BGF GB/c/d:|2 BGF GBd||

